!!!!SEGMENT: pl-cz--iii-506--001_neumann-wawrzyniec--vesperae-c-dixit.krn
!!!cenid: 17xx:240
!!!COM: Neumann, Wawrzyniec
!!!COM-rismid: pe30107352
!!!CDT: ~1700-~1799
!!!CNT:
!!!OPR: Vesperae C
!!!OTL: Dixit
!!!OMV: 001
!!!PDT:
!!!AGN: Sacred
!!!SMS-siglum: PL-CZ
!!!SMS-shelfmark: III-506
!!!SMS-shelfwork: 001-001 M
!!!NIFC-rismid:
!!!URL-scan: http://repozytorium.nifc.pl/skany/pl-cz-nut--iii-506
!!!ONB-nifc: UWAGA: części Vesperae: Dixit, Confitebor, Beatus, Laudate pueri, Laudate Dominum, Magnificat
!!!AIN: 1 alto 1 bass 2 empty 1 organ 1 tenor 2 violn 1 vox
!!!key:
**kern	**fba	**kern	**dynam	**kern	**dynam	**kern	**text	**kern	**text	**kern	**text	**kern	**text	**kern	**kern
*part9	*	*part8	*part8	*part7	*part7	*part6	*part6	*part5	*part5	*part4	*part4	*part3	*part3	*part2	*part1
*staff9	*	*staff8	*	*staff7	*	*staff6	*staff6	*staff5	*staff5	*staff4	*staff4	*staff3	*staff3	*staff2	*staff1
*Iorgan	*	*Ivioln	*	*Ivioln	*	*Ibass	*	*Itenor	*	*Ialto	*	*Ivox	*	*Iempty	*Iempty
*I"Organo.	*	*I"Violino Secundo.	*	*I"Violino Primo.	*	*I"Basso. Conc.	*	*I"Tenore. ad libe	*	*I"Alto. Conc.	*	*I"Canto Conc.	*	*I"Clarino Secondo.	*I"Clarino Primo.
*I'Organo.	*	*I'Vn II	*	*I'Vn I	*	*I'B	*	*I'T	*	*I'A	*	*I'C	*	*I'Clarino Secondo.	*I'Clarino Primo.
*clefF4	*	*clefG2	*	*clefG2	*	*clefF4	*	*clefC4	*	*clefC3	*	*clefC1	*	*clefG2	*clefG2
*k[]	*	*k[]	*	*k[]	*	*k[]	*	*k[]	*	*k[]	*	*k[]	*	*k[]	*k[]
*C:	*	*C:	*	*C:	*	*C:	*	*C:	*	*C:	*	*C:	*	*C:	*C:
*M4/4	*	*M4/4	*	*M4/4	*	*M4/4	*	*M4/4	*	*M4/4	*	*M4/4	*	*M4/4	*M4/4
*met(c)	*	*met(c)	*	*met(c)	*	*met(c)	*	*met(c)	*	*met(c)	*	*met(c)	*	*met(c)	*met(c)
=1	=1	=1	=1	=1	=1	=1	=1	=1	=1	=1	=1	=1	=1	=1	=1
!LO:TX:a:t=P:problem=mixed beam	!	!LO:TX:a:t=Dixit,	!	!	!	!	!	!	!	!	!	!	!	!	!
!LO:TX:a:rj:t=mod&colon;	!	!	!	!	!	!LO:TX:a:t=mod&colon;	!	!LO:TX:a:t=Allo&colon;	!	!LO:TX:a:t=Allo&colon;	!	!	!	!LO:TX:a:t=P:problem=mixed beam	!
!LO:TX:a:t=T&colon;	!	!LO:TX:a:t=Allo	!	!LO:TX:a:t=Allo&colon; mod&colon;	!	!LO:TX:a:t=T&colon;	!	!	!	!LO:TX:a:t=T&colon;	!	!LO:TX:a:t=Allo&colon;	!	!LO:TX:a:t=Allo&colon;	!LO:TX:a:t=Allo&colon;
8c\L	.	8e/L	f	8cc\L	.	8C/	Di-	8e\	Di-	8g\	Di-	8cc\	Di-	8e/L	8cc\L
!	!	!	!	!	!	!	!	!LO:TX:a:t=T.	!	!	!	!	!	!	!
8C/J	.	8e/J	.	8cc\J	.	8C/	-xit	8e\	-xit	8g\	-xit	8cc\	-xit	8cc\J	8ee\J
8r	.	16e/LL	.	16cc\LL	.	8C/	Do-	16e\	Do-	16g\	Do-	8cc\	Do-	4r	8r
.	.	16g/	.	16ee\	.	.	.	16e\	-mi-	16g\	-mi-	.	.	.	.
8F\	6 5	16f/	.	16dd\	.	16F\	-mi-	8A\	-nus	8a\	-nus	16dd\	-mi-	.	16dd\LL
.	.	16e/JJ	.	16cc\JJ	.	16F\	-nus	.	.	.	.	16cc,\	-nus	.	16cc\JJ
8G\L	.	8d/	.	16b\LL	.	8G\	Do-	8d\	Do-	8g\	Do-	8b\	Do-	8g/	4gg\
.	.	.	.	16cc\	.	.	.	.	.	.	.	.	.	.	.
8G\J	.	4dd\	.	16dd\	.	16G\	-mi-	16B\	-mi-	16g\	-mi-	16dd\	-mi-	4dd\	.
.	.	.	.	16ee\JJ	.	16G\	-no	16c\	-no	16g\	-no	16ee,\	-no	.	.
16A\LL	6	.	.	8ff\L	.	16A\LL	me-	8f\	me-	8g\	me-	8dd\	me-	.	8ff\L
16B\J	.	.	.	.	.	16B\JJ	.	.	.	.	.	.	.	.	.
8c\J	.	16cc\LL	.	8ee\J	.	8c\	-o	8e\	-o	8g\	-o	8cc\	-o	8cc\	8ee\J
.	.	16gg\JJ	.	.	.	.	.	.	.	.	.	.	.	.	.
=2	=2	=2	=2	=2	=2	=2	=2	=2	=2	=2	=2	=2	=2	=2	=2
8r	.	4gg\	.	16gg\LL	.	8C/	Se-	8e\	Se-	8a\	Se-	8cc\	Se-	8r	8r
.	.	.	.	16a\J	.	.	.	.	.	.	.	.	.	.	.
8C/L	6 5	.	.	[8a\J	.	16C/	-de	16e\	-de	16g\	-de	16cc\	-de	8ee\	8gg\
.	.	.	.	.	.	16C/	a	16e\	a	16g\	a	16cc\	ad	.	.
*	*	*2\right	*	*	*	*	*	*	*	*	*	*	*	*	*
8.D/	.	2ff\	.	16a\LL]	.	8.D/	de-	8d\	de-	8f\	de-	8a\	de-	4dd\	4ff\
.	.	.	.	16cc#X\	.	.	.	.	.	.	.	.	.	.	.
.	.	.	.	16dd\	.	.	.	8d\	-xtris	8f\	-xtris	8a\	-xtris	.	.
16C/Jk	.	.	.	16ee\JJ	.	16C/	-xtris	.	.	.	.	.	.	.	.
4BB/	6 5	.	.	16ff\LL	.	8BB/	me-	8d\	me-	8g\	me-	8dd\	me-	8r	8r
.	.	.	.	16g\J	.	.	.	.	.	.	.	.	.	.	.
.	.	.	.	[8g\J	.	8BB/	-is,	8G/	-is,	8g\	-is	8dd,\	-is,	8dd\	8ff\
4C/	.	[4ee\	.	16g\LL]	.	8.C/	Do-	8c\	Do-	8g\	Do-	8ee\	do-	4cc\	4ee\
.	.	.	.	16bn\	.	.	.	.	.	.	.	.	.	.	.
.	.	.	.	16cc#\	.	.	.	8c\	-nec	8g\	-nec	8gg\	-nec	.	.
.	.	.	.	16dd\JJ	.	16BB/	-nec	.	.	.	.	.	.	.	.
=3	=3	=3	=3	=3	=3	=3	=3	=3	=3	=3	=3	=3	=3	=3	=3
!	!	!	!	!LO:TX:a:t=P:problem=mixed beam	!	!	!	!	!	!	!	!	!	!	!
8r	.	4ee\]	.	16ee\LL	.	8AA/	Po-	8c\	Po-	8cc\	po-	8ee\	Po-	8r	8r
.	.	.	.	16f/J	.	.	.	.	.	.	.	.	.	.	.
8AA/L	6 5	.	.	[8f/J	.	8AA/	-nam	8f\	-nam	8f\	-nam	8cc\	-nam	8cc\	8ee\
!	!	!	!	!	!	!	!	!	!	!	!	!	!	!	!LO:TX:a:t=t&colon;
8D/	.	4.dd\	.	16f/LL]	.	16D\	i-	16d\	i-	16f\	I-	16dd\	i-	16cc\LL	4dd\
.	.	.	.	16a/	.	16D\	-ni-	16d\	-ni-	16f\	-ni-	16dd\	-ni-	16g\J	.
8GG/J	.	.	.	16b/	.	16G\	-mi-	16B\	-mi-	16f\	-mi-	16dd\	-mi-	8g\J	.
.	.	.	.	16cc/JJ	.	16G\	-cos	16B\	-cos	16f\	-cos	16dd\	-cos	.	.
*	*	*	*	*	*	*	*	*	*	*custos	*	*custos	*	*	*
!LO:TX:a:t=P:problem=mixed beam	!	!	!	!LO:TX:a:t=P:problem=mixed beam	!	!	!	!	!	!	!	!	!	!	!
!	!	!	!	!	!	!LO:LB:g=original	!	!LO:LB:g=original	!	!LO:LB:g=original	!	!LO:LB:g=original	!	!	!
8C\L	9	.	.	16dd\LL	.	8C/	tu-	16c\LL	tu-	8e\	tu-	8dd\	tu-	8g/L	8dd\L
.	.	.	.	16e/J	.	.	.	16G\JJ	.	.	.	.	.	.	.
8c/J	8	8cc\	.	[8e/J	.	8C/	-os,	8G\	-os	8e\	-os	8cc\	-os,	8e/J	8cc\J
!	!	!LO:TX:a:t=P:problem=mixed beam	!	!	!	!	!	!	!	!	!	!	!	!	!
4C/	.	16gg\LL	.	16e/LL]	.	8r	.	8r	.	4r	.	8r	.	4e/	4cc\
.	.	16e/	.	16g/	.	.	.	.	.	.	.	.	.	.	.
.	.	16f/	.	16a/	.	8G\	Sca-	8G/	Sca-	.	.	16cc\LL	Sca-	.	.
.	.	16g/JJ	.	16b/JJ	.	.	.	.	.	.	.	16b\JJ	.	.	.
!	!	!	!	!LO:LB:g=original	!	!	!	!	!	!	!	!	!	!	!
=4	=4	=4	=4	=4	=4	=4	=4	=4	=4	=4	=4	=4	=4	=4	=4
8r	.	16e/LL	.	16cc\LL	.	8C/	-bel-	8G/	-bel-	2r	.	8cc\	-bel-	4r	4r
.	.	16B/	.	16dd\	.	.	.	.	.	.	.	.	.	.	.
8C/L	.	16c/	.	16ee\	.	8C/	-lum	8G/	-lum	.	.	8ee\	-lum	.	.
.	.	16g/JJ	.	16cc\JJ	.	.	.	.	.	.	.	.	.	.	.
8BB/	.	8dd\L	.	8ff\L	.	8BB/	Pe-	16d\LL	Pe-	.	.	8dd\	Pe-	8dd\L	8ff\L
.	.	.	.	.	.	.	.	16f\JJ	.	.	.	.	.	.	.
!LO:LB:g=original	!	!	!	!	!	!	!	!	!	!	!	!	!	!	!
8C/J	.	8cc\J	.	8ee\J	.	16C/	-dum	16e\	-dum	.	.	16cc,\	-dum	8cc\J	8ee\J
.	.	.	.	.	.	16C/	tu-	16e\	tu-	.	.	16cc\	tu-	.	.
!LO:TX:a:t=P:problem=mixed beam	!	!	!	!LO:TX:a:t=t&colon;	!	!	!	!	!	!	!	!	!	!	!
!	!	!	!	!	!	!	!	!	!	!	!	!	!	!LO:LB:g=original	!
8G\L	4	8cc\L	.	8ee\L	.	4G\	-o-	(8e\L	-o-	8r	.	8cc\L	-o-	8cc\L	8ee\L
8GG/	3	16.b\L	.	8dd\J	.	.	.	8d\J)	.	8g\	vir-	8b\J	.	16g\L	16dd\L
.	.	.	.	.	.	.	.	.	.	.	.	.	.	16g\JJ	16dd\JJ
.	.	32cc\JJk	.	.	.	.	.	.	.	.	.	.	.	.	.
8BB/	6	8dd\L	.	16r	.	4GG/	-rum.	4d\	-rum	8g\	-gam	4b\	-rum,	4g\	4dd\
.	.	.	.	16gg\KL	.	.	.	.	.	.	.	.	.	.	.
!	!	!	!	!LO:TX:a:t=t&colon;	!	!	!	!	!	!	!	!	!	!	!
8C/J	.	8ee\J	.	8gg\J	.	.	.	.	.	8g\	vir-	.	.	.	.
!	!	!LO:LB:g=original	!	!	!	!	!	!	!	!	!	!	!	!	!LO:LB:g=original
=5	=5	=5	=5	=5	=5	=5	=5	=5	=5	=5	=5	=5	=5	=5	=5
!	!	!	!	!	!	!	!	!	!	!	!	!	!	!	!LO:TX:a:t=1
8D\	#	8a/	.	24ff#X\LL	.	4r	.	4r	.	8f#X\	-tu-	4r	.	1r	1r
.	.	.	.	24gg\	.	.	.	.	.	.	.	.	.	.	.
.	.	.	.	24aa\J	.	.	.	.	.	.	.	.	.	.	.
8r	.	8r	.	8dd\J	.	.	.	.	.	8f#\	-tis	.	.	.	.
8F#X\	.	8a/	.	16r	.	8F#X\	Do-	8d\	Do-	16f#\LL	tu-	8r	.	.	.
.	.	.	.	16cc\KL	.	.	.	.	.	16a\JJ	.	.	.	.	.
!	!	!	!	!LO:TX:a:t=t&colon;	!	!	!	!	!	!	!	!	!	!	!
8r	.	8r	.	8cc\J	.	8F#\	-mi-	8d\	-mi-	16a\	-ae	16cc\	do-	.	.
.	.	.	.	.	.	.	.	.	.	16a\	e-	16cc\	-mi-	.	.
8G\	.	8d/	.	16b\LL	.	8G\	-na-	8d\	-na-	8g\	-mit-	16b\LL	-na-	.	.
.	.	.	.	16cc\JJ	.	.	.	.	.	.	.	16cc\JJ	.	.	.
8r	.	8r	.	4dd\	.	16G\	-re	16B\	-re	8g\	-tet	16dd\	-re	.	.
.	.	.	.	.	.	16G\	in	16B\	in	.	.	16dd\	in	.	.
8BB/	6	8g/	.	.	.	8BB/	me-	16G/	me-	16g\	Do-	16dd\	me-	.	.
.	.	.	.	.	.	.	.	16G/	-di-	16g\	-mi-	16dd\	-di-	.	.
8r	.	8r	.	8dd#X\	.	16BB/	-di-	8G/	-o	16g\	-nus	8dd#X\	-o	.	.
.	.	.	.	.	.	16BB/	-o	.	.	16g\	ex	.	.	.	.
=6	=6	=6	=6	=6	=6	=6	=6	=6	=6	=6	=6	=6	=6	=6	=6
4C/	6	8e/L	.	16ee\LL	.	8C/	i-	8c\	in-	8e\	Si-	8ee\	in-	8r	8r
.	.	.	.	16cc\	.	.	.	.	.	.	.	.	.	.	.
.	5	8e/J	.	16b\	.	16C/	-ni-	16c\	-i-	8e\	-on.	16ee\	-i-	8ee\	4gg\
.	.	.	.	16a\JJ	.	16C/	-mi-	16c\	-mi-	.	.	16ee\	-mi-	.	.
!	!	!	!	!LO:TX:a:t=P:problem=mixed beam	!	!	!	!	!	!	!	!	!	!	!
4D/	4	8B/L	.	16dd\LL	.	8D/	-co-	8B\	-co-	4r	.	8dd\	-co-	4dd\	.
.	.	.	.	16g/	.	.	.	.	.	.	.	.	.	.	.
.	.	16c/L	.	16a/	.	16D/	-rum	16A\	-rum	.	.	16f#X/	-rum	.	8ff#X\
.	#	16A/JJ	.	16f#X/JJ	.	16D/	tu-	16A\	tu-	.	.	16f#/	tu-	.	.
*	*	*	*	*	*	*	*	*	*	*	*	*custos	*	*	*
!	!	!	!	!	!	!	!	!	!	!	!	!LO:LB:g=original	!	!	!
4GG/	.	8B/L	.	8g/L	.	8GG/	-o-	8B\	-o-	2r	.	8g/	-o-	8dd\L	8gg\L
.	.	16d/L	.	16d/L	.	8GG/	-rum.	8B\	-rum.	.	.	8g/	-rum	16dd\L	8bb\J
.	.	16B/JJ	.	16B/JJ	.	.	.	.	.	.	.	.	.	16dd\JJ	.
8r	.	4G/	.	8G/L	.	4r	.	4r	.	.	.	4r	.	4dd\	4bb\
!LO:TX:a:t=S&colon;	!	!	!	!	!	!	!	!	!	!	!	!	!	!	!
16D/LL	.	.	.	8d/J	p	.	.	.	.	.	.	.	.	.	.
16BB/JJ	.	.	.	.	.	.	.	.	.	.	.	.	.	.	.
!	!	!	!	!	!	!	!	!LO:LB:g=original	!	!	!	!	!	!	!
=7	=7	=7	=7	=7	=7	=7	=7	=7	=7	=7	=7	=7	=7	=7	=7
!LO:TX:a:t=P:problem=mixed beam	!	!	!	!	!	!LO:TX:a:t=5	!	!LO:TX:a:t=5	!	!	!	!LO:TX:a:t=S&colon;	!	!	!
8GG/L	.	8r	.	4.g/	.	00r	.	00r	.	1r	.	4g\	Te-	00r	00r
8G\J	.	16B/LL	p	.	.	.	.	.	.	.	.	.	.	.	.
.	.	16d/JJ	.	.	.	.	.	.	.	.	.	.	.	.	.
4GG/	.	16B/LL	.	.	.	.	.	.	.	.	.	8g\	-cum	.	.
.	.	16G/J	.	.	.	.	.	.	.	.	.	.	.	.	.
.	.	8g/J	.	8b/	.	.	.	.	.	.	.	8b\	Prin-	.	.
.	.	8qqg/	.	8qqb/	.	.	.	.	.	.	.	8qqb/	.	.	.
8r	.	4.f#X/	.	4.a/	.	.	.	.	.	.	.	8.a\	-ci-	.	.
8D\L	#	.	.	.	.	.	.	.	.	.	.	.	.	.	.
.	.	.	.	.	.	.	.	.	.	.	.	16a\	-pi-	.	.
8F#X\	.	.	.	.	.	.	.	.	.	.	.	8a\	-um-	.	.
8D\J	.	8a/	.	8cc\	.	.	.	.	.	.	.	8cc\	-in	.	.
!	!	!	!	!LO:LB:g=original	!	!	!	!	!	!	!	!	!	!	!
=8	=8	=8	=8	=8	=8	=8	=8	=8	=8	=8	=8	=8	=8	=8	=8
8G\L	.	8d/	.	(16b\LL	.	.	.	.	.	2r	.	16b\LL	-Die	.	.
.	.	.	.	16cc\	.	.	.	.	.	.	.	16cc\JJ	.	.	.
8B\J	6	4g/	.	16dd\)	.	.	.	.	.	.	.	16dd,\	.	.	.
.	.	.	.	16gg\JJ|	.	.	.	.	.	.	.	16dd\	vir-	.	.
!	!	!	!	!LO:TX:a:t=P:problem=mixed beam	!	!	!	!	!	!	!	!	!	!	!
4c\	.	.	.	8ee\L	.	.	.	.	.	.	.	8ee\	-tu-	.	.
.	.	8e/	.	8g/J	.	.	.	.	.	.	.	8g/	-tis	.	.
8d\L	#	8A/L	.	8f#X/L	.	.	.	.	.	4r	.	8f#X/	tu-	.	.
!	!	!	!	!	!	!	!	!	!	!LO:TX:a:t=S&colon;	!	!	!	!	!
16G\L	.	16B/L	.	8g/J	.	.	.	.	.	.	.	8g/	-a,	.	.
16A\JJ	.	16c/JJ	.	.	.	.	.	.	.	.	.	.	.	.	.
8B\L	6	8d/L	.	8r	.	.	.	.	.	8g\	in	8r	.	.	.
8G\J	.	8g/J	.	8b\	.	.	.	.	.	8g\	Splen-	16b\	in	.	.
.	.	.	.	.	.	.	.	.	.	.	.	16b\	Splen-	.	.
!LO:LB:g=original	!	!LO:LB:g=original	!	!	!	!	!	!	!	!LO:LB:g=original	!	!	!	!	!
=9	=9	=9	=9	=9	=9	=9	=9	=9	=9	=9	=9	=9	=9	=9	=9
!LO:TX:a:t=P:problem=mixed beam	!	!	!	!	!	!	!	!	!	!	!	!	!	!	!
8D/L	#	8.f#X/L	.	8.a\L	.	.	.	.	.	8f#X\	-do-	(8.a\	-do-	.	.
8DD/	.	.	.	.	.	.	.	.	.	16g\LL	-ri-	.	.	.	.
.	.	32g/LL	.	32b\LL	.	.	.	.	.	16a\JJ	.	32b\LLL	-ri-	.	.
.	.	32a/JJJ	.	32cc\JJJ	.	.	.	.	.	.	.	32cc\JJJ)	.	.	.
8GG/	.	8g/L	.	4b\	.	.	.	.	.	4g\	-bus	4b\	-bus	.	.
*	*	*	*	*	*	*	*	*	*	*	*	*custos	*	*	*
*	*	*	*	*	*	*	*	*	*	*	*	*custos	*	*	*
!	!	!	!	!	!	!	!	!	!	!	!	!LO:LB:g=original	!	!	!
8G\J	.	8b/J	.	.	.	.	.	.	.	.	.	.	.	.	.
4GG/	.	8.b\L	.	16gg\LL	.	.	.	.	.	16g\LL	San-	16b\LL	San-	.	.
.	.	.	.	16ee\JJ	.	.	.	.	.	16a\	.	16cc\	.	.	.
.	.	.	.	4dd\	.	.	.	.	.	16b\	.	16dd\	.	.	.
.	.	16cc\Jk	.	.	.	.	.	.	.	16cc\JJ	.	16ee\JJ	.	.	.
8r	.	8b\L	.	.	.	.	.	.	.	8b\L	.	8dd\L	.	.	.
8GG/	.	16a\L	.	16cc\LL	.	.	.	.	.	16a\L	.	16cc\L	.	.	.
.	.	16g\JJ	.	16b\JJ	.	.	.	.	.	16g\JJ	.	16b\JJ	.	.	.
=10	=10	=10	=10	=10	=10	=10	=10	=10	=10	=10	=10	=10	=10	=10	=10
!	!	!	!	!LO:TX:a:t=t&colon;	!	!	!	!	!	!	!	!	!	!	!
8D\L	4	8g/L	.	8b\L	.	.	.	.	.	8g\	-cto-	8b\	-cto-	.	.
8D\	#	8f#X/J	.	8a\J	.	.	.	.	.	8f#X\	-rum.	8a\	-rum,	.	.
8F#X\	6	16A/LL	.	(16d/LL	.	.	.	.	.	8r	.	8r	.	.	.
.	.	16d/	.	16a/)	.	.	.	.	.	.	.	.	.	.	.
8D\J	#	16f#/	.	(16a/	.	.	.	.	.	8a\	ex	8cc\	ex	.	.
.	.	16a/JJ	.	16cc/JJ)	.	.	.	.	.	.	.	.	.	.	.
!	!	!LO:TX:a:t=t&colon;	!	!LO:TX:a:t=t&colon;	!	!	!	!	!	!	!	!	!	!	!
8r	.	8.a/L	.	8.cc\L	.	.	.	.	.	8.a\	u-	8.cc\	u-	.	.
16E\LL	6 4	.	.	.	.	.	.	.	.	.	.	.	.	.	.
16F#X\JJ	.	32g/LL	.	32b\LL	.	.	.	.	.	16a\	-te-	16cc\	-te-	.	.
.	.	32a/JJJ	.	32cc\JJJ	.	.	.	.	.	.	.	.	.	.	.
!LO:TX:a:t=P:problem=mixed beam	!	!	!	!	!	!	!	!	!	!	!	!	!	!	!
8G\L	.	4g/	.	4b\	.	.	.	.	.	4g\	-ro	4b\	-ro	.	.
8GG/J	.	.	.	.	.	.	.	.	.	.	.	.	.	.	.
=11	=11	=11	=11	=11	=11	=11	=11	=11	=11	=11	=11	=11	=11	=11	=11
4r	.	16B/LL	.	8gg\	.	1r	.	1r	.	2r	.	8gg\	an-	1r	1r
.	.	16e/	.	.	.	.	.	.	.	.	.	.	.	.	.
.	.	16g/	.	4gg\	.	.	.	.	.	.	.	16gg\	-te	.	.
.	.	16b/JJ	.	.	.	.	.	.	.	.	.	16gg\	Lu-	.	.
4c\	.	8ee\L	.	.	.	.	.	.	.	.	.	8gg\	-ci-	.	.
.	.	8a\J	.	16ff#X\LL	.	.	.	.	.	.	.	16ff#X\	-fe-	.	.
.	.	.	.	16ee\JJ	.	.	.	.	.	.	.	16ee\	-rum	.	.
!	!	!	!	!LO:TX:a:t=t&colon;	!	!	!	!	!	!	!	!	!	!	!
8B\L	6 4	4g/	.	4ee\	.	.	.	.	.	4g\	ge-	(4ee\	ge-	.	.
16G\L	.	.	.	.	.	.	.	.	.	.	.	.	.	.	.
16A\JJ	.	.	.	.	.	.	.	.	.	.	.	.	.	.	.
!LO:TX:a:t=P:problem=mixed beam	!	!LO:TX:a:t=t&colon;	!	!	!	!	!	!	!	!	!	!	!	!	!
8B\L	#	4f#X/	.	4dd#X\	.	.	.	.	.	8f#X\	-nu-	8dd#X\)	-nu-	.	.
8BB/J	.	.	.	.	.	.	.	.	.	8f#\	-i	8dd#\	-i	.	.
!	!	!	!	!	!	!LO:LB:g=original	!	!	!	!	!	!	!	!	!
=12	=12	=12	=12	=12	=12	=12	=12	=12	=12	=12	=12	=12	=12	=12	=12
!	!	!	!	!LO:TX:a:t=P:problem=mixed beam	!	!	!	!	!	!	!	!	!	!	!
4E\	.	8e/L	.	8e/L	.	8r	.	8r	.	8g\	te	8ee\	te,	8e/L	8ee\L
!	!	!	!	!	!	!	!	!	!	!LO:TX:a:t=T&colon;	!	!LO:TX:a:t=T&colon;	!	!	!
.	.	8g/J	.	8ee\J	.	8E\	Ju-	8B\	Ju-	8g\	Ju-	8ee\	Ju-	8e/J	8ee\J
!LO:TX:a:t=T&colon;	!	!	!	!	!	!	!	!	!	!	!	!	!	!	!
8r	.	16g/LL	.	16ee\LL	f	8c\	-ra-	8e\	-ra-	8g\	-ra-	8ee\	-ra-	4r	4r
.	.	16b/	.	16gg\	.	.	.	.	.	.	.	.	.	.	.
8A\	6\ 5	16a/	.	16ff#X\	.	8A\	-vit	8c\	-vit	8a\	-vit	8ee\	-vit	.	.
.	.	16g/JJ	.	16ee\JJ	.	.	.	.	.	.	.	.	.	.	.
!	!	!LO:TX:a:t=P:problem=mixed beam	!	!	!	!	!	!	!	!	!	!	!	!	!
!	!	!LO:LB:g=original	!	!LO:LB:g=original	!	!	!	!	!	!	!	!	!	!	!
4B\	#	8f#X/L	.	16dd#X\LL	.	8.B\	Do-	8.B\	Do-	8.f#X\	Do-	8.dd#X\	Do-	2r	2r
.	.	.	.	16ee\	.	.	.	.	.	.	.	.	.	.	.
.	.	16dd#X\L	.	16ff#X\	.	.	.	.	.	.	.	.	.	.	.
.	.	16ee\JJ	.	16gg\JJ	.	16B\	-mi-	16B\	-mi-	16f#\	-mi-	16b\	-mi-	.	.
8D#X\L	.	8ff#X\L	.	8aa\L	.	8D#X\	-nus,	8B\	-nus	8f#\	-nus	8b\	-nus	.	.
8E\J	.	8ee\J	.	8gg\J	.	16E\LL	et	8G/	et	8e\	et	8b\	et	.	.
.	.	.	.	.	.	16G\JJ	.	.	.	.	.	.	.	.	.
!	!	!	!	!	!	!	!	!	!	!LO:LB:g=original	!	!LO:LB:g=original	!	!	!
=13	=13	=13	=13	=13	=13	=13	=13	=13	=13	=13	=13	=13	=13	=13	=13
8r	.	4ee\	.	16bb\LL	.	8A\	-non	8A\	-non	8e\	non	8cc\	non	8r	8r
.	.	.	.	16cc\J	.	.	.	.	.	.	.	.	.	.	.
16A\LL	.	.	.	[8cc\J	.	16A\	poe-	16A\	poe-	16e\	poe-	16cc\	poe-	8cc\L	8ee\
16G\JJ	.	.	.	.	.	16G\	-ni-	16A\	-ni-	16e\	-ni-	16cc\	-ni-	.	.
8F#X\L	.	16dd\LL	.	16cc\LL]	.	8F#X\	-te-	8A\	-te-	8d\	-te-	8cc\	-te-	8dd\	8dd\L
.	.	16cc\J	.	16ee\	.	.	.	.	.	.	.	.	.	.	.
!	!	!LO:TX:a:t=t&colon;	!	!	!	!	!	!	!	!	!	!	!	!	!
8D\J	#	8cc\J	.	16ff#X\	.	8D\	-bit	8A\	-bit	8d\	-bit	8cc\	-bit	8dd\J	16ee\L
.	.	.	.	16gg\JJ	.	.	.	.	.	.	.	.	.	.	16ff#X\JJ
.	.	.	.	.	.	.	.	.	.	.	.	.	.	.	8qqff#/
!LO:LB:g=original	!	!	!	!	!	!	!	!	!	!	!	!	!	!	!
4G\	.	8b/L	.	16aa\LL	.	8G\	e-	8G/	e-	8d\	e-	8b\	e-	4dd\	4gg\
.	.	.	.	16b\J	.	.	.	.	.	.	.	.	.	.	.
.	.	8g/	.	8b\J	.	8GG/	-um.	8G/	-um,	8d\	-um,	8b\	-um,	.	.
!	!	!	!LO:DY:b	!	!	!	!	!	!	!LO:TX:a:t=S&colon;	!	!LO:TX:a:t=S&colon;	!	!	!
4r	.	8g#X/	p	8.b\L	p	4r	.	4r	.	8g#X\	Tu	8b\	tu	4r	4r
.	.	8a/J	.	.	.	.	.	.	.	16g#\	es	16b\	es	.	.
.	.	.	.	16cc\Jk	.	.	.	.	.	16a\	Sa-	16cc\	Sa-	.	.
=14	=14	=14	=14	=14	=14	=14	=14	=14	=14	=14	=14	=14	=14	=14	=14
!LO:TX:a:rj:t=S&colon;	!	!	!	!	!	!	!	!	!	!	!	!	!	!	!
8G#X\L	7	8b\L	.	16dd\LL	.	2r	.	2r	.	8b\	-cer-	16dd\LL	-cer-	1r	1r
.	.	.	.	16ee\J	.	.	.	.	.	.	.	16ee\JJ	.	.	.
8G#\	.	16cc\L	.	8ffn\J	.	.	.	.	.	8dd\	-dos	8ffn,\	-dos	.	.
.	.	16dd\JJ	.	.	.	.	.	.	.	.	.	.	.	.	.
8G#\	6	8cc\L	.	8ee\L	.	.	.	.	.	8b\	in	8ee\	in	.	.
8G#\J	5	8b\J	.	8dd\J	.	.	.	.	.	16a\LL	ae-	8dd\	ae-	.	.
.	.	.	.	.	.	.	.	.	.	16b\JJ	.	.	.	.	.
!	!	!LO:TX:a:t=t&colon;	!	!	!	!	!	!	!	!	!	!	!	!	!
8.A\L	.	8b\L	.	8dd\L	.	8r	.	8r	.	8b\	-ter-	8dd\	-ter-	.	.
.	.	8a\J	.	16cc\L	.	16r	.	16r	.	16a\	-num	16cc,\	-num	.	.
!LO:TX:a:t=T&colon;	!	!	!	!	!	!	!	!	!	!LO:TX:a:t=T&colon;	!	!LO:TX:a:t=T&colon;	!	!	!
16Fn\K	.	.	.	16a\JJ	.	16Fn\	Se-	16A\	Se-	16a\	Se-	16a\	Se-	.	.
8E\	#	16cc\LL	f	8aa\L	f	8E\	-cun-	8A\	-cun-	8g\	-cun-	8a\	-cun-	.	.
.	.	16b\	.	.	.	.	.	.	.	.	.	.	.	.	.
8D\J	.	16cc\	.	8aa\J	.	8D\	-dum	8A\	-dum	8f\	-dum	8a\	-dum	.	.
.	.	16dd\JJ	.	.	.	.	.	.	.	.	.	.	.	.	.
=15	=15	=15	=15	=15	=15	=15	=15	=15	=15	=15	=15	=15	=15	=15	=15
!	!	!LO:TX:a:t=P:problem=mixed beam	!	!LO:TX:a:t=P:problem=mixed beam	!	!	!	!	!	!	!	!	!	!	!
8C\L	6	8ee\L	.	16aa\LL	.	16C/	or-	16c\	or-	16e\	or-	16a\	or-	8r	8r
.	.	.	.	16a/	.	16C/	-di-	16c\	-di-	16e\	-di-	16a\	-di-	.	.
.	.	.	.	8qqb/	.	.	.	.	.	.	.	.	.	.	.
*	*	*	*	*	*	*	*	*	*	*	*	*	*	*	*Xtuplet
8F\	.	8c/	.	32a/L	.	16F,\	-nem	16c\	-nem	16c\	-nem	16a,\	-nem	8c/	24cc\LL
.	.	.	.	32g#X/J	.	.	.	.	.	.	.	.	.	.	.
.	.	.	.	.	.	.	.	.	.	.	.	.	.	.	24dd\
.	.	.	.	16a/JJ	.	16F\	Mel-	16A\	Mel-	16c\	Mel-	16cc\	Mel-	.	.
.	.	.	.	.	.	.	.	.	.	.	.	.	.	.	24ee\JJ
8D\	6 5	8f/	.	8B/L	.	8D\	-chi-	8.A\	-chi-	8f\	-chi-	8.b\	-chi-	8r	8ff\L
8E\J	#	8B/J	.	8g#X/J	.	8E\	-se-	.	.	8e\	-se-	.	.	8e/	8ee\J
.	.	.	.	.	.	.	.	16G#X\	-se-	.	.	16b\	-se-	.	.
!	!	!	!	!LO:LB:g=original	!	!	!	!LO:LB:g=original	!	!	!	!	!	!LO:LB:g=original	!
4AA/	.	16c/LL	.	(16a\LL	.	4AA/	-dech.	4A/	-dech.	4e\	-dech.	4a\	-dech.	4e/	4ee\
.	.	16e/	.	16cc\)	.	.	.	.	.	.	.	.	.	.	.
.	.	16g/	.	(16b\	.	.	.	.	.	.	.	.	.	.	.
.	.	16B/JJ	.	16ff\JJ)	.	.	.	.	.	.	.	.	.	.	.
!	!	!LO:TX:a:t=P:problem=mixed beam	!	!	!	!	!	!	!	!	!	!	!	!	!
4r	.	16c/LL	.	(16ee\LL	.	4r	.	4r	.	4r	.	4r	.	4r	4r
.	.	16bb-X\	.	16ddd\)	.	.	.	.	.	.	.	.	.	.	.
.	.	16aa\	.	(16ccc\	.	.	.	.	.	.	.	.	.	.	.
.	.	16gg\JJ	.	16bb-X\JJ)	.	.	.	.	.	.	.	.	.	.	.
!	!	!	!	!	!	!	!	!	!	!LO::SIC:o=:v:custos	!	!	!	!	!
!	!	!LO:LB:g=original	!	!	!	!LO:LB:g=original	!	!	!	!LO:LB:g=original	!	!LO:LB:g=original	!	!	!
=16	=16	=16	=16	=16	=16	=16	=16	=16	=16	=16	=16	=16	=16	=16	=16
!LO:TX:a:t=P:problem=mixed beam	!	!	!	!	!	!	!	!	!	!	!	!	!	!	!
!LO:TX:a:t=S&colon;	!	!	!	!	!	!LO:TX:a:t=1	!	!	!	!LO:TX:a:t=S&colon;	!	!LO:TX:a:t=1	!	!	!
8F\L	.	8ff\L	p	8aa\L	p	1r	.	0r	.	8.f\	Do-	1r	.	00r	00r
8FF/J	.	8a\	.	[8ff\J	.	.	.	.	.	.	.	.	.	.	.
.	.	.	.	.	.	.	.	.	.	16f\	-mi-	.	.	.	.
8r	.	8a\	.	16ff\LL]	.	.	.	.	.	16f\LL	-nus-	.	.	.	.
.	.	.	.	16aa\	.	.	.	.	.	16a\JJ	.	.	.	.	.
8BB-X/	6	8dd\J	.	16gg\	.	.	.	.	.	16g\LL	-a	.	.	.	.
.	.	.	.	16ff\JJ	.	.	.	.	.	16f\JJ	.	.	.	.	.
8C/L	.	16cc\LL	.	16ee\LL	.	.	.	.	.	16e\LL	de-	.	.	.	.
.	.	16dd\	.	16ff\	.	.	.	.	.	16f\JJ	.	.	.	.	.
8C/J	.	16ee\	.	16gg\	.	.	.	.	.	16g\LL	-xtris	.	.	.	.
.	.	16ff\JJ	.	16aa\JJ	.	.	.	.	.	16a\JJ	.	.	.	.	.
16D\LL	-6	8gg\L	.	8bb-X\L	.	.	.	.	.	8b-X\	tu-	.	.	.	.
16E\J	.	.	.	.	.	.	.	.	.	.	.	.	.	.	.
8F\J	.	8ff\J	.	8aa\J	.	.	.	.	.	16a\	-is	.	.	.	.
.	.	.	.	.	.	.	.	.	.	16cc\	con-	.	.	.	.
=17	=17	=17	=17	=17	=17	=17	=17	=17	=17	=17	=17	=17	=17	=17	=17
!	!	!LO:TX:a:t=P:problem=mixed beam	!	!LO:TX:a:t=P:problem=mixed beam	!	!	!	!	!	!	!	!	!	!	!
8r	.	8aa\L	.	16cc\LL	.	2r	.	.	.	16cc\LL	-fre-	2r	.	.	.
.	.	.	.	16d/	.	.	.	.	.	16a\JJ	.	.	.	.	.
8F#X\L	6 5	8a/	.	16d/	.	.	.	.	.	16d\	-git	.	.	.	.
.	.	.	.	16cc\JJ	.	.	.	.	.	16d\	in	.	.	.	.
8G\	-	8g/	.	8b-X\L	.	.	.	.	.	16d\	Di-	.	.	.	.
.	.	.	.	.	.	.	.	.	.	16d\	-e	.	.	.	.
8A\J	6\	8f#X/J	.	8cc\J	.	.	.	.	.	16d\	i-	.	.	.	.
.	.	.	.	.	.	.	.	.	.	16d\	-rae	.	.	.	.
4B-X\	6	16r	.	16dd\LL	.	4r	.	.	.	8b-X\L	Su-	4r	.	.	.
.	.	16d/LL	.	16b-X\	.	.	.	.	.	.	.	.	.	.	.
!	!	!	!	!	!	!LO:TX:a:t=S&colon;	!	!	!	!	!	!LO:TX:a:t=S&colon;	!	!	!
.	.	16c/	.	16a\	.	.	.	.	.	16a\L	-ae	.	.	.	.
.	.	16B-X/JJ	.	16g\JJ	.	.	.	.	.	16g\JJ	.	.	.	.	.
4c\	4	8A/L	.	8f/L	.	8A\	Ju-	.	.	8f\L	Re-	8cc\	Ju-	.	.
.	.	8B-X/J	.	8e/J	.	8G\	-di-	.	.	8e\J	.	8cc\	-di-	.	.
!LO:LB:g=original	!	!	!	!	!	!	!	!	!	!	!	!	!	!	!
=18	=18	=18	=18	=18	=18	=18	=18	=18	=18	=18	=18	=18	=18	=18	=18
4F\	.	4A/	.	4f/	.	8A\	-ca-	1r	.	4f\	-ges.	8cc\	-ca-	.	.
.	.	.	.	.	.	16G\	-bit	.	.	.	.	16b-X,\	-bit	.	.
.	.	.	.	.	.	16F\	in	.	.	.	.	16a\	in	.	.
8r	.	8r	.	8r	.	8B-X\	na-	.	.	4r	.	8g/	na-	.	.
[8BB-X/	.	8d/	.	8f/	.	8d\	-ti-	.	.	.	.	8f/	-ti-	.	.
!	!	!	!	!LO:TX:a:t=P:problem=mixed beam	!	!	!	!	!	!	!	!	!	!	!
8BB-/L]	4 2	8c/L	.	8e/L	.	16c\	-o-	.	.	2r	.	16e/	-o-	.	.
.	.	.	.	.	.	16c\	-ni-	.	.	.	.	16e/	-ni-	.	.
8AA/J	6	8c/	.	16f/L	.	16F\	-bus	.	.	.	.	16f,</	-bus	.	.
.	.	.	.	16ff\JJ	.	16F\	im-	.	.	.	.	16ff\	im-	.	.
4r	.	8f/	.	8ff\L	.	8A\	-ple-	.	.	.	.	8ff\	-ple-	.	.
.	.	8f/J	.	16ee\L	.	16F\	-bit	.	.	.	.	16ee,\	-bit	.	.
.	.	.	.	16dd\JJ	.	16F\	ru-	.	.	.	.	16dd\	ru-	.	.
!	!	!	!	!LO:LB:g=original	!	!	!	!	!	!	!	!	!	!	!
=19	=19	=19	=19	=19	=19	=19	=19	=19	=19	=19	=19	=19	=19	=19	=19
!	!	!LO:TX:a:t=P:problem=mixed beam	!	!	!	!	!	!	!	!	!	!	!	!	!
8G\L	n	8f/L	.	16cc\LL	.	8G\	-i-	4r	.	2r	.	16cc\LL	-i-	.	.
.	.	.	.	16bn\J	.	.	.	.	.	.	.	16bn\JJ	.	.	.
8C\	.	8e/	.	8cc\J	.	8C/	-nas,	.	.	.	.	8cc\	-nas	.	.
!LO:TX:a:t=T&colon;	!	!	!LO:DY:b	!	!	!LO:TX:a:t=T&colon;	!	!	!	!	!	!LO:TX:a:t=T&colon;	!	!	!
8D\	-6	8gg\	f	16b-X\LL	f	16G\	con-	16G/	con-	.	.	16b-X\	con-	.	.
.	.	.	.	16gg\	.	16G\	-quas-	16G/	-quas-	.	.	16b-\	-quas-	.	.
8E\J	.	8gg\J	.	(16b-\	.	16G\	-sa-	16G/	-sa-	.	.	16b-\	-sa-	.	.
.	.	.	.	16gg\JJ)	.	16G\	-bit	16G/	-bit	.	.	16b-\	-bit	.	.
*	*	*	*	*	*	*	*	*	*	*	*	*custos	*	*	*
!LO:TX:a:t=P:problem=mixed beam	!	!	!	!LO:TX:a:t=t&colon;	!	!	!	!	!	!	!	!	!	!	!
!	!	!	!	!	!	!	!	!	!	!	!	!LO:LB:g=original	!	!	!
!	!	!	!	!	!	!	!	!	!	!LO:TX:a:t=T&colon;	!	!	!	!	!
8F\L	9 4	8gg\L	.	8.b-\L	.	8.c\	ca-	8.F/	ca-	8r	.	8.b-X\	ca-	.	.
8FF/	.	8ff\	.	.	.	.	.	.	.	8g\	In	.	.	.	.
.	.	.	.	32a\LL	.	16F\	-pi-	16A/	-pi-	.	.	16a\	-pi-	.	.
.	.	.	.	32b-\JJJ	.	.	.	.	.	.	.	.	.	.	.
8FF/	8 3	8ff\	.	8a/L	.	8F\	-ta	8c\	-ta	8f\	ter-	4a\	-ta,	.	.
8D/J	.	8ff\J	.	8a/J	.	8D\	in	8d\	in	16f\	-ra	.	.	.	.
.	.	.	.	.	.	.	.	.	.	16f\	mul-	.	.	.	.
*	*	*	*	*	*	*custos	*	*	*	*	*	*	*	*	*
!	!	!LO:LB:g=original	!	!	!	!LO:LB:g=original	!	!	!	!LO:LB:g=original	!	!	!	!	!
=20	=20	=20	=20	=20	=20	=20	=20	=20	=20	=20	=20	=20	=20	=20	=20
.	.	8qqccc/	.	.	.	.	.	.	.	.	.	.	.	.	.
8C/L	.	8bb-X\L	.	8e/L	.	8C/	ter-	8E/	ter-	8g\	-to-	4r	.	8c/L	8cc\L
8FF/J	.	8aa\J	.	8f/J	.	8FF/	-ra	8F/	-ra,	8f\	-rum,	.	.	8c/J	8cc\J
8r	.	16dd\LL	.	16dd\LL	.	8r	.	8r	.	8a\	de	8dd\	de-	4r	4r
.	.	16a\	.	16a\	.	.	.	.	.	.	.	.	.	.	.
8F\	.	16dd\	.	16dd\	.	8F\	mul-	8d\	mul-	8a\	tor-	8dd\	-tor-	.	.
.	.	16ee\JJ	.	16ee\JJ	.	.	.	.	.	.	.	.	.	.	.
8F\L	6	16ff\LL	.	16ff\LL	.	8F\	-to-	8d\	-to-	8a\	-ren-	8dd\	-ren-	2r	2r
.	.	16dd\JJ	.	16dd\	.	.	.	.	.	.	.	.	.	.	.
8F\	.	4aa\	.	16aa\	.	8F\	-rum,	8A\	-rum.	16a\	-te	16ff\	-te	.	.
.	.	.	.	16gg\JJ	.	.	.	.	.	16a\	in	16ee\	in	.	.
8F\	.	.	.	16ff\LL	.	4r	.	4r	.	8a\	vi-	8dd\	vi-	.	.
.	.	.	.	16ee\	.	.	.	.	.	.	.	.	.	.	.
8F\J	5	[8a/	.	16dd\	.	.	.	.	.	8a\	-a	8cc\	-a	.	.
.	.	.	.	16cc\JJ	.	.	.	.	.	.	.	.	.	.	.
=21	=21	=21	=21	=21	=21	=21	=21	=21	=21	=21	=21	=21	=21	=21	=21
8G\	4	8a/L]	.	8cc\L	.	8r	.	8r	.	8a\	bi-	8cc\	bi-	8cc\L	8dd\L
4G\	3	8g/J	.	16bn\L	.	8G\	pro-	8d\	pro-	16g\	-bet	16bn,\	-bet	8g\J	8dd\J
.	.	.	.	16g\JJ	.	.	.	.	.	16g\	pro-	16g\	pro-	.	.
.	2	8.a\L	.	8.a\L	.	16G\	-pte-	16e\	-pte-	8c\	-pte-	8a\	-pte-	4r	4r
.	.	.	.	.	.	16G\	-re-	16e\	-re-	.	.	.	.	.	.
4F\	6	.	.	.	.	8F\	-a	8e\	-a	16c\	-re-	16a\	-re-	.	.
.	.	32bn\LL	.	32b\LL	.	.	.	.	.	16c\	-a	16a\	-a	.	.
.	.	32cc\JJJ	.	32cc\JJJ	.	.	.	.	.	.	.	.	.	.	.
!	!	!	!	!	!	!	!	!	!	!	!	!	!	!LO:TX:a:t=P:problem=mixed beam	!
.	4 2	8d/L	.	24b\LL	.	8F\	ex-	8d\	ex-	8d\	ex-	8b\	ex-	8g/L	8dd\L
.	.	.	.	24cc\	.	.	.	.	.	.	.	.	.	.	.
.	.	.	.	24dd\J	.	.	.	.	.	.	.	.	.	.	.
8E\L	6	8g/	.	8cc\J	.	8E\	-al-	8c\	-al-	8g\	-al-	8cc\	-al-	8cc\J	16ee\L
.	.	.	.	.	.	.	.	.	.	.	.	.	.	.	16gg\JJ
8D\	6	8bn/	.	8ff\L	.	8D\	-ta-	8Bn\	-ta-	8g\	-ta-	8ff\	-ta-	8r	8ff\L
8C\J	.	8cc/J	.	8ee\J	.	8C/	-bit	8c\	-bit	8g\	-bit	8ee\	-bit	8cc\	8ee\J
!	!	!	!	!	!	!	!	!LO:LB:g=original	!	!	!	!	!	!	!
=22	=22	=22	=22	=22	=22	=22	=22	=22	=22	=22	=22	=22	=22	=22	=22
!	!	!LO:TX:a:t=t&colon;	!	!LO:TX:a:t=t&colon;	!	!	!	!	!	!	!	!	!	!	!LO:TX:a:t=t&colon;
4GG/	4	8cc\L	.	8ee\L	.	8GG/	ca-	8c\	ca-	8g\	ca-	8ee\	ca-	8cc\L	8ee\L
.	3	8bn\J	.	8dd\J	.	8G\	-put,	8B\	-put	8g\	-put,	8dd\	-put.	8g\J	8dd\J
!LO:TX:a:t=S&colon;	!	!	!	!	!	!	!	!	!	!LO:TX:a:t=S&colon;	!	!	!	!	!
4E\	.	4r	.	4e/	p	4r	.	4r	.	4.g\	glo-	4r	.	4r	4r
!	!	!	!	!LO:LB:g=original	!	!	!	!	!	!	!	!	!	!	!
4C/	6 5	4e/	p	4c/	.	2r	.	2r	.	.	.	2r	.	2r	2r
.	.	.	.	.	.	.	.	.	.	16a\	-ri-	.	.	.	.
.	.	.	.	.	.	.	.	.	.	16g\	-a	.	.	.	.
.	.	.	.	.	.	.	.	.	.	8qqg/	.	.	.	.	.
4D/	#	4A/	.	4d/	.	.	.	.	.	4f#X\	Pa-	.	.	.	.
*	*	*	*	*	*	*	*	*	*	*custos	*	*	*	*	*
!	!	!	!	!	!	!	!	!	!	!LO:LB:g=original	!	!LO:LB:g=original	!	!	!
=23	=23	=23	=23	=23	=23	=23	=23	=23	=23	=23	=23	=23	=23	=23	=23
!	!	!	!	!	!	!	!	!	!	!	!	!	!	!	!LO:TX:a:t=3
4GG/	.	4G/	.	4G/	.	8r	.	0r	.	8g\	-tri,	0r	.	0r	0r
!	!	!	!	!	!	!LO:TX:a:t=S&colon;	!	!	!	!	!	!	!	!	!
.	.	.	.	.	.	8B\	et	.	.	8d\	et	.	.	.	.
8r	.	4r	.	4r	.	8B\	fi-	.	.	8d\	fi-	.	.	.	.
8G\	.	.	.	.	.	16c\LL	-li-	.	.	16e\LL	-li-	.	.	.	.
.	.	.	.	.	.	16d\JJ	.	.	.	16f\JJ	.	.	.	.	.
8C/L	.	2r	.	2r	.	8c\	-o	.	.	8e\	-o	.	.	.	.
8C/	.	.	.	.	.	16c\	et	.	.	16e\	et	.	.	.	.
.	.	.	.	.	.	16C/	Spi-	.	.	16e\	Spi-	.	.	.	.
8C/	.	.	.	.	.	8E\	-ri-	.	.	8g\	-ri-	.	.	.	.
8C/J	.	.	.	.	.	16D\	-tu-	.	.	16f\	-tu-	.	.	.	.
.	.	.	.	.	.	16C\	-i	.	.	16e\	-i	.	.	.	.
!	!	!	!	!	!	!LO:LB:g=original	!	!	!	!	!	!	!	!	!
=24	=24	=24	=24	=24	=24	=24	=24	=24	=24	=24	=24	=24	=24	=24	=24
8C/L	4	8r	.	8r	p	8F\	San-	.	.	8a\	San-	.	.	.	.
8C/J	3	(16gg\LL	.	(16gg\LL	.	8E\	-cto,	.	.	8g\	-cto	.	.	.	.
.	.	16cc\JJ)	.	16cc\JJ)	.	.	.	.	.	.	.	.	.	.	.
4G\	.	(16b\LL	.	(16b\LL	.	16G\LL	Si-	.	.	8r	.	.	.	.	.
.	.	16dd\J)	.	16dd\J)	.	16A\JJ	.	.	.	.	.	.	.	.	.
.	.	8dd\J	.	8dd\J	.	8B\	-cut	.	.	16d\	Si-	.	.	.	.
.	.	.	.	.	.	.	.	.	.	16d\	-cut	.	.	.	.
!	!	!LO:LB:g=original	!	!	!	!	!	!	!	!	!	!	!	!	!
8r	.	2r	.	2r	.	16c\LL	e-	.	.	16e-X\LL	e-	.	.	.	.
.	.	.	.	.	.	16B\JJ	.	.	.	16d\JJ	.	.	.	.	.
8GG/L	.	.	.	.	.	8B\	-rat	.	.	8d\	-rat	.	.	.	.
8GG/	.	.	.	.	.	8d\	in	.	.	8f\	in	.	.	.	.
8GG/J	-6 4	.	.	.	.	8c\	prin-	.	.	8e-X\	prin	.	.	.	.
=25	=25	=25	=25	=25	=25	=25	=25	=25	=25	=25	=25	=25	=25	=25	=25
!LO:TX:a:t=P:problem=mixed beam	!	!	!	!	!	!	!	!	!	!	!	!	!	!	!
8GG/L	_ _	2r	.	2r	.	16c\	-ci-	2r	.	16e-X\	ci-	2r	.	1r	1r
.	.	.	.	.	.	16B\	-pi-	.	.	16d\	-pi-	.	.	.	.
8GG/	x 5	.	.	.	.	16B\	-o	.	.	16d\	-o	.	.	.	.
.	.	.	.	.	.	16d\	et	.	.	16f\	et	.	.	.	.
8GG/	.	.	.	.	.	8d\	nunc	.	.	8f\	nunc	.	.	.	.
8F#X\J	-7	.	.	.	.	8c\	et	.	.	8e-X\	et	.	.	.	.
4G\	6 4	4r	.	4r	.	8c\	Sem-	4r	.	8e-\	Sem-	4r	.	.	.
.	5 3	.	.	.	.	8B\	-per	.	.	8d\	-per	.	.	.	.
!LO:TX:a:t=T&colon;	!	!	!	!	!	!	!	!	!	!LO:TX:a:t=T&colon;	!	!	!	!	!
4GG/	.	8b/L	f	4gg\	f	8G\	et	8d\	et	8g\	Et	8b\	et	.	.
.	.	8B/J	.	.	.	8G\	in	8d\	in	8g\	in	8b\	in	.	.
!	!	!	!	!	!	!	!	!	!	!LO:LB:g=original	!	!	!	!	!
=26	=26	=26	=26	=26	=26	=26	=26	=26	=26	=26	=26	=26	=26	=26	=26
!	!	!LO:TX:a:t=P:problem=mixed beam	!	!	!	!	!	!	!	!	!	!	!	!	!
4AA/	6\	8c/L	.	24ff#X\LL	.	8A\	Sae-	8c\	Sae-	16f#X\	Sae-	8cc\	Sae-	4r	4r
.	.	.	.	24gg\	.	.	.	.	.	.	.	.	.	.	.
.	.	.	.	.	.	.	.	.	.	16f#\	-cu-	.	.	.	.
.	.	.	.	24aa\J	.	.	.	.	.	.	.	.	.	.	.
.	.	8cc\	.	8ff#\J	.	16A\	-cu-	16A\	-cu-	8f#\	-la	16cc\	-cu-	.	.
.	.	.	.	.	.	16A\	-la	16A\	-la	.	.	16cc\	-la	.	.
4BB/	n5	8dd\	.	24ffn\LL	.	8B\	Sae-	8G/	Sae-	8fn\	Sae-	8dd\	Sae-	8dd\L	8ff\L
.	.	.	.	24gg\	.	.	.	.	.	.	.	.	.	.	.
.	.	.	.	24aa\J	.	.	.	.	.	.	.	.	.	.	.
.	.	8d/J	.	8ff\J	.	8B\	-cu-	8G/	-cu-	8f\	-cu-	8dd\	-cu-	8dd\J	8ff\J
!	!	!	!	!LO:TX:a:t=t&colon;	!	!	!	!	!	!	!	!	!	!	!
4C/	9 8	8c/L	.	8.ee\L	.	8c\	-lo-	8G/	-lo-	8e\	-lo-	8dd\	-lo-	16cc\LL	16ee\LL
.	.	.	.	.	.	.	.	.	.	.	.	.	.	16dd\J	16ff\J
.	.	8g/J	.	.	.	8c\	-rum,	8G/	-rum,	8e\	-rum	8cc\	-rum	8ee\J	8gg\J
.	.	.	.	32dd\LL	.	.	.	.	.	.	.	.	.	.	.
.	.	.	.	32ee\JJJ	.	.	.	.	.	.	.	.	.	.	.
8r	.	16ee\LL	.	16gg\LL	.	8r	.	8r	.	8r	.	8r	.	4r	4r
.	.	16cc\J	.	16ee\	.	.	.	.	.	.	.	.	.	.	.
8F#X\	6 5	8a\J	.	16dd\	.	8F#X\	a-	8A\	a-	8e\	a-	8cc\	a-	.	.
.	.	.	.	16cc\JJ	.	.	.	.	.	.	.	.	.	.	.
*	*	*	*	*	*	*custos	*	*	*	*	*	*	*	*	*
!	!	!	!	!	!	!LO:LB:g=original	!	!	!	!	!	!	!	!LO:LB:g=original	!
=27	=27	=27	=27	=27	=27	=27	=27	=27	=27	=27	=27	=27	=27	=27	=27
4G\	.	8g/L	.	16b\LL	.	4G\	-men	4d\	-men	4d\	-men	4b\	-men	4g/	4dd\
.	.	.	.	16g\|	.	.	.	.	.	.	.	.	.	.	.
.	.	16f/L	.	16a\|	.	.	.	.	.	.	.	.	.	.	.
.	.	16g/JJ	.	16b\JJ|	.	.	.	.	.	.	.	.	.	.	.
4r	.	16a\LL	.	16cc\LL|	.	4r	.	4r	.	4r	.	4r	.	4r	4r
.	.	16b\	.	16dd\|	.	.	.	.	.	.	.	.	.	.	.
.	.	16cc\	.	16ee\|	.	.	.	.	.	.	.	.	.	.	.
.	.	16dd\JJ	.	16ff\JJ|	.	.	.	.	.	.	.	.	.	.	.
!	!	!	!	!LO:LB:g=original	!	!	!	!	!	!	!	!	!	!	!
4r	.	16ee\LL	.	16gg\LL|	.	4r	.	4r	.	4r	.	4r	.	4r	4r
.	.	16ff\	.	16aa\|	.	.	.	.	.	.	.	.	.	.	.
.	.	16gg\	.	16bb\|	.	.	.	.	.	.	.	.	.	.	.
.	.	16ee\JJ	.	16ccc\JJ|	.	.	.	.	.	.	.	.	.	.	.
8F\L	6	8ff\L|	.	8ddd\L	.	8F\L	a-	8d\L	a-	(8a\L	a-	8ff\L	a-	8dd\L	8ff\L
8G\J	.	8dd\J|	.	8bb\J	.	8G\J	.	8B\J	.	8g\J)	.	8dd\J	.	8g\J	8dd\J
!	!	!	!	!	!	!	!	!	!	!	!	!	!	!	!LO:LB:g=original
=28	=28	=28	=28	=28	=28	=28	=28	=28	=28	=28	=28	=28	=28	=28	=28
.	.	.	.	.	.	.	.	.	.	.	.	.	.	8qqg/	.
4C/	.	4ee\	.	4ccc\	.	4C/	-men.	4c\	-men.	4g\	-men	4ee\	-men.	4cc\	4ee\
4r	.	4r	.	4r	.	4r	.	4r	.	4r	.	4r	.	4r	4r
2r	.	2r	.	2r	.	2r	.	2r	.	2r	.	2r	.	2r	2r
==	==	==	==	==	==	==	==	==	==	==	==	==	==	==	==
*-	*-	*-	*-	*-	*-	*-	*-	*-	*-	*-	*-	*-	*-	*-	*-
!!!system-decoration: [(s1,s2)][(s3,s4,s5,s6)][(s7,s8)]s9
!!!RDF**kern: > = above
!!!RDF**kern: < = below
!!!RDF***dynam: p = pi:
!!!RDF**dynam: f = for:
!!!EED: Leszek Kubiak
!!!EEV: 2020-07-17
!!!ENC: Anastazja Marusiak
!!!END: 2020-05-06
!!!RDF**kern: | = vertical stroke
